!!!SOCIAL_FUNCTION:	songs connected with expeditions to obtain salt
!!!PDT:	1929
!!!OTL: No_124_The_Rain_on_the_Corn_and_the_Squash.krn
!!!REG: Southwest
!!!LANG: Non-Tone
!!!LING_GROUP: Uto-Aztecan
**kern
*staff1
=1-
*clefF4
*k[b-]
*M3/4
4c\
8c\L
8c\J
8c\L
8c\J
=2||
*M2/4
4.c\
8G\
=3!|:
8c\L
8c\J
8c\L
8c\J
=4
8c\L
8G\J
8A\L
16F\Jk
16r
=5
8c\L
16c\L
16c\JJ
8c\L
8c\J
=6
8d\L
8c\J
8G\L
8A\J
=7
(8G\L
8F\J)
8F\L
8F\J
=8
8G\L
8G\J
8G\L
8G\J
=9
16A\LK
8.F\J
8F\L
8G\J
=10||
*M3/4
8A\L
8G\J
4F\
4C;/
=11||
*M2/4
8F\L
8F\J
8F\L
8F\J
=12
8F\L
16F\L
16F\JJ
4D\
=13
6F\
6F\
6D\
=14
6F\
6F\
6D\
=15
2F\
=16
8.F\L
16F\Jk
8F/L
8C/J
=17||
*M3/4
8.F\L
16F\Jk
2F\
==:|!
*-
